X:29
T:Anach Cuan
R:slow air
H:Related to "The Sheep in the Boat", jig#445
Z:id:hn-slowair-29
M:3/4
L:1/8
Q:1/4=60
K:Ador
AAB | c2 B>A BA/G/ | g2 a>b ag | e2 d>B AB | G3
AAB | c2 B>A BG | g2 a>b ag | e2 d>B AA | A3 ||
eeg | a2 b>a ge/f/ | g a2 bag | ed2 BAB | G3
AAB | c2 B>A BG | g a2 bag | e2 d>B AA | A3 ||

